X: 404
T: Sonata	 Op. 65
C: Fryderyk Chopin
%%abc-version 2.0
%%abcx-abcm2ps-target-version 5.9.1 (29 Sep 2008)
%%abc-creator hum2abc beta
%%abcx-conversion-date 2021/10/03 11:24:09
%%abc-edited-by Wojciech Jakubiak-Danek
%%abcx-initial-encoding-date 2020-04-27
%%humdrum-veritas 4242366260
%%humdrum-veritas-data 3924180767
%%linebreak <none>
%%barnumbers 0
L: 1/8
M: C|
N: Derived from 065-1-BH-004-violino.krn
P: Sonate pour Piano et Violoncelle
Q: "Allegro."
K: Bb clef=treble
Z5 | 
d2a>b (3a^g=g (3ge'd' | 
(3d'^c'=c'c'2(3c'=b_b b3/b/ | 
(3b=ea a>^f g>d g3/e/ | 
(3=FGAA2-(3Adff2- | 
(3f=edA2-(3Adff2- | 
(3f=edc2-(3cfaa2- | 
a2A2-Acc3/=B/ | 
A2z2z4 | 
z2A2-Acc3/=B/ | 
A2z2z4 | 
z2A2-Acc3/=B/ | 
A2G2-G_BB3/A/ | 
G2F2-F_AA3/G/ | 
G2G,2_A,3=A, | 
D2E4F2 | 
F2z2z CF3/E/ | 
=A,B,_D4C2 | 
=B,2=d>e (3d=Bc (3e_b_a | 
(3g^f=ff4e2 | 
edefc2d2 | 
!trill!=e4{/de}f4 | 
_ed(3egfc2d2 | 
=e8 | 
_e6Fe | 
d2d>^c d>cd3/=c/ | 
=B_AGA FAED | 
D2[f2_A2]DFC=B, | 
=B,2[f2d2G2]z4 | 
z4z2g2- | 
g2f>g_a4 | 
g2f>ef4 | 
e2d>ef4 | 
e2d>cd4 | 
=e2c'2c'2z2 | 
z2C2_AGF2 | 
z4G,2C3/B,/ | 
B,2FB (3BcB =AG | 
d2e/d/B/G/!trill!^F4{/=EF} | 
G2z2g2g2 | 
[g2e2][fd][ge][_a4c4] | 
[g2e2][fd][ec][f4=B4] | 
[e2c2][d=B][ec][f4_A4] | 
[e2=A2][dA][cD][d2G2][g2=B2] | 
[g2_B2][f_A][gB][_a4c4] | 
[g2B2][fB][=eB][f4_A4] | 
[f2G2]gf[_e2G2]c2 | 
!arpeggio![=B6D6G,6]G2 | 
[=e2G2C2]z2z2A,2 | 
DFA^cd2z2 | 
[f2A2D2]z2z2=B,2 | 
=E^G=B^d=e2z2 | 
=G8 | 
D6z2 | 
z2C2=B,2C2 | 
D4G, zG2 | 
=e>d d>c e>d d3/c/ | 
c>=B B>A B>G G3/G/ | 
=e>d d>c e>d d3/c/ | 
c>=B B>A B>^F F3/.F/ | 
^F8 | 
^C6z2 | 
^d>^c c>=B d>c c3/B/ | 
=B>^A A>^G A>^F F3/.F/ | 
z4^A>^FF3/F/ | 
^f2z2^a>ff3/f/ | 
^f'4z4 | 
z4A2Bc | 
^F2a>b (3a^g=g (3ge'd' | 
(3d'^c'=c' c'>.c' (3c'=b_b b3/.b/ | 
(3b=ea a>^f g>d g3/e/ | 
(3=FGAA2=B2(3^cd=e | 
^f8 | 
d'6z2 | 
D2A>B (3A^G=G (3Ged | 
(3d^c=c c>.c (3c=B_B D3/._D/ | 
(3_DG,C C>A, B,>F B3/G/ | 
(3_AG_G G>.G (3GF=EE2 | 
^G,4^C2=E2 | 
[A2=E2A,2]E>^F (3E^D=D (3D=BA | 
(3A^G=G G>.G (3G^F=F F3/.F/ | 
[c2=E2G,2]=e>^G e>A a3/^d/ | 
=e2=E>B, E>A, c3/^F/ | 
G2g>d g>c c'3/^f/ | 
g2C2A,2=B,2- | 
B,2=B2-(3BAB (3dcB | 
=B2z2z4 | 
z2=B2-(3BAB d/^c/=c/B/ | 
=B2z2z4 | 
z2=e2-egg3/^f/ | 
=e2=B2-Bdd3/^c/ | 
=B2z2z4 | 
z2G2-G_BB3/A/ | 
A4B2F=B | 
c2c2F2G2 | 
G4z D G3/F/ | 
F2E4D2 | 
^C2=E>F (3ECD (3FBA | 
(3A^G=GG4F2- | 
F=EFGD2E2 | 
!trill!^F4G2z2 | 
F=E(3FAGD2E2 | 
^F8 | 
=F2-F>=EF2G3/f/ | 
=e2e>^d e>d e3/=d/ | 
^cBAB GBFB | 
E2[g2B2G2]EBDB | 
^C2[g2A2=E2]z4 | 
z4z2a2 | 
a2gab4 | 
a2gfg4 | 
f2=efg4 | 
f2=ede4 | 
a2gab4 | 
a2g^fg4 | 
g2a=e fgab | 
=bc'd'=e' f'g'a'2 | 
a'4=e'4 | 
a4z4 | 
(3DAf (3f=ed (3G,Dd (3dcB | 
(3AGF (3F=ED (3A,B,A, (3CB,A, | 
(3A,B,A, (3A,DA, (3A,GF (3F=ED | 
(3D=B,.B, (3B,=E.E (3EA,.A, (3A,_B,A, | 
(3A,DD (3_ED.D (3D^CD (3F=ED | 
(3DA,D (3D_EC (3B,D^F (3GA,B, | 
(3A,=EA, (3A,A,A, (3A,B,A, (3CB,A, | 
A,4z4 | 
[^f2A2D2]z2z2=B,2 | 
=EG=B^d=e2z2 | 
[g2=B2=D2]z2z2^C2 | 
^F^A^c^e^f2z2 | 
z2D2^C2D2 | 
=E4A, zA2 | 
^f>=e e>d f>e e3/d/ | 
d>^c c>=B c>A A3/A,/ | 
=C8 | 
G,4C z z a | 
a>g g>f a>g g3/f/ | 
f>=e e>d e>c c3/.c/ | 
z4=E>CC3/C/ | 
c4=e>cc3/c/ | 
c'2z2z4 | 
z8 | 
D>CC>C C>=B,B,3/=B/ | 
_B>AD>AG2z2 | 
z4D2G,B, | 
A,2A>ff2=ea | 
a2d2[c2D2][c2D2] | 
[c2D2A,2]z2[B2D2G,2]z2 | 
[d2=E2^G,2]z2[c2E2A,2]z2 | 
(3f=e_ee2-e>ee3/.e/ | 
d2d>g g>=Bc3/g/ | 
g>A_B>g g>A!accent!e3/d/ | 
d2G2-GBB3/A/ | 
(3edBG2-GBB3/A/ | 
=e4z4 | 
^C2=EG B^c=eg | 
b^c=eg b^c'=e'g' | 
b'2z2z4 | 
z8 ||  
 [K:G] B>A A>G B>A A3/G/ | 
e>d d>c e>d d3/c/ | 
g8- | 
g6(3ABc | 
d4-d=ff3/e/ | 
dca2-a^cd3/=c/ | 
B4-Bc (3BAe | 
e2FE DFBA | 
G2(3D_E=E=F2(3C_D=D | 
_E2(3_B,=B,C _D=F_A2 | 
.^G z (3=E^FG (3ABc (3def | 
ag (3^deg (3Bce (3=d^c=c | 
B2E4=F3/E/ | 
^D2_E>=D^C2_D3/=C/ | 
=B,2(3EF^G (3ABc (3def | 
(3gab (3cde (3fga (3B^c^d | 
(3efg (3abc' (3d'e'f' g' z/ A,/ | 
A,2-(3A,B,A, (3B,A,B, (3A,DA, | 
G,2(3G,G,G,G,4- | 
G,2(3G,G,G,G,4- | 
[D2G,2][G2G,2][F2G,2][G2G,2] | 
[F2G,2][G2G,2][A2G,2][d2G,2] | 
[F2G,2][G2G,2][F2G,2][G2G,2] | 
[F2G,2][G2G,2][A2G,2][d2G,2] | 
[A4G,4][d4G,4] | 
[A4G,4][d4G,4] | 
B>GG>Gg4 | 
b>gg>gg'4 | 
[g'2b2][g'b][g'b] [g'b][d'g].[d'g].[d'g] | 
[d'b][d'g].[d'g].[d'g] [d'g][bg].[bg].[bg] | 
[bg][bd].[bd].[bd] [bd][bg][bg][bd] | 
[bd][bg][bg][bd] [bd][dG][dG][dG] | 
[d2G2]G,2B,2D2 | 
G2z2[c2_E2G,2]z2 | 
[b2B2D2G,2]z2z4 |]
